!!!SOCIAL_FUNCTION:	songs for success in ball game
!!!PDT:	1956
!!!OTL: No_219_Ball_Game_Song_(b).krn
!!!LANG: Non-Tone
!!!LING_GROUP: Muskogean
!!!REG: Florida
**kern
*staff1
=1-
*clefF4
*k[b-e-]
*M3/4
2r
8c\L
8B-\J
=2
4c\
8c\L
8B-\J
8B-\L
8F\J
=3
4G\
8G\L
8F\J
8F\L
8D\J
=4
4F\
8F\
8r
8F\L
8D\J
=5
4F\
8F\
8r
8B-\L
8F\J
=6
4G\
8G\L
8F\J
8F\L
8D\J
=7
4F\
8F\
8r
8c\L
8B-\J
=8
4c\
8c\L
8B-\J
8B-\L
8F\J
=9
4G\
8G\L
8F\J
8F\L
8D\J
=10
4F\
8F\
8r
8F\L
8D\J
=11
4F\
4F\
4r
=12
8c\
8r
4B-\
4B-\
==
*-
